X:1
T:All Hallows, 76.76 D
T:All Hallows, 76.76 D
T:George Clement Martin, 1891
T:Public Domain Courtesy of the Cyber Hymnal™
C:George Clement Martin, 1891
Z:Public Domain
Z:Courtesy of the Cyber Hymnal™
%%score ( 1 2 ) ( 3 4 )
L:1/8
Q:1/4=110
M:4/4
K:Ab
V:1 treble 
V:2 treble 
V:3 bass 
V:4 bass 
V:1
 E2 | [EA]2 A2 [DA]2 [DE]2 | [CE]2 [EB]2 [=DA]2 [EG]2 | F2 (GA) [EG]2 [=DF]2 | E6 E2 | %5
 [EA]2 A2 [DA]2 [DE]2 | c3 z B [FA]2 [_EG]2 | G2 F2 [EA]2 (GF) x2 | E6 E2 | [EF]2 F2 [DF]2 (FB) | %10
 (B3 A) G2 E2 | [CEA]2 A2 [CE] [DA]2 (Ad) | [EBd]6 E2 x11/8 | [ce]3 [Bd] [Ac]2 C2 x11/8 | %14
 [CA]3 [=EG] F2 [Ac]2 | [Ac]6 [AB]2 | [GBe]6 [Gc]2 | A6 |] %18
V:2
 E2 | x2 (FE) x4 | x8 | E4 x4 | E6 E2 | x2 (FE) x4 | E2 =E2 x5 | E4 =D2 x4 | E6 E2 | %9
 x2 (DC) x D2 x | [DE]6 (ED) | x2 ([DF] x F2) x3 | x6 E2 x11/8 | x6 C2 x11/8 | x4 F2 x2 | x8 | x8 | %17
 A6 |] %18
V:3
 [G,B,]2 | [C,A,]2 A,2 [B,,A,]2 [E,G,]2 | [A,,A,]2 [G,,B,]2 [F,,B,]2 [E,,B,]2 | C4 B,2 A,2 | %4
 ([G,B,]2 [A,C]2 [B,D]2) [D,G,B,]2 | A,4 [B,,A,]2 [E,G,]2 | [A,,A,]2 [G,,B,]2 [F,,C]2 [G,,B,]2 x | %7
 [A,C]4 [F,C]2 B,2 x2 | [E,,E,G,B,]6 [E,,E,]2 | E,2 (D,C,) [B,,B,]2 [A,,A,]2 | %10
 [G,,G,]3 [A,,A,] [B,,B,]2 (E,D,) | C,2 (D,C,) [B,,B,]2 [A,,A,]2 x | %12
 [E,,G,,G,]6 E,2{G,,,,} (3:2:2([F,,F,][G,,G,]) x/24 | [A,,CE]3 [B,,B,D] [C,A,C]2 (3:2:1z x65/24 | %14
 C4 [A,C]2 (FE) | [B,,F,=D]6 (B,C) | [E,D]6 [E,,E,E]2 | [A,,E,A,C]6 |] %18
V:4
 (E,D,) | x2 (D,C,) x4 | x8 | A,,2 F,,2 B,,4 | E,6 x2 | C,2 (D,C,) x4 | x9 | %7
 A,,2 F,,2 B,,4 (B,A,) | x8 | E,,8- | E,,8- | E,,8- x | x6 (3:2:1E,, x65/24 | %13
 x6{A,,,} [C,C]2 (3:2:2=D,=E, | F,3 G, F,2 x2 | x6 B,2 | x8 | x6 |] %18

